X: 1
T: Now I Know
R: tango
M: C|
L: 1/4
Z: John Chambers <jc@trillian.mit.edu>
K: C
|: "C"[c3G3E3] [GE] | [E2C2] (3[EC][FD][GE] | "Dm"[G2E2] [F2-D2-] | [F4D4] \
| "G7"[d3B3] [BG] | [G2F2D2] (3[FD][GE][AF] | "C"[A2F2] [G2-E2-] | [G2E2] cd |
| "C"e2 dc | B2 cd | "Dm" [A4F4E4C4] | "G7"[A2F2E2B,2] [BG][cA] \
| [d2B2F2][cAF][BGF] | [A2F2][BG][cA] | "C"G2- "G"G2 | "G7"[G3F3D3] G ||
|| "C"[c3E3] [GE] | [E2C2] (3[EC][FD][GE] | "Dm"[G2E2] [F2-D2-] | [F4D4] \
| "G7"[d3B3] [BG] | G2 (3Bcd | "E7"e4- | "A7"e4 |
| "Dm"e3 d | A2 (3ded | "C9"[d3B3G3E3] [cAGE] | "C6"[G3E3C3A,3] "G"[GE^C^A,]\
| "Dm"G>F F2- | "G7"FG/A/ BG |1 "C"[c2A2G2E2] "A7"[A2G2E2^C2] | "Dm"[d2A2F2D2] "G"[g2^d2B2F2] \
                            :|2 "C"c4- | cz z2 |]
